X:17221
T:Tondin Stomile
M:4/4
L:1/8
Q:1/2=100
K:Am
A,2 B,A, A,G,|B,G, C E2B,| A,2B, D2z|| \
B2 AG EG|A2 A2 A2 | def d2 d|e2f ede | edc B2 A | B2B A2 :|*
|: d2 de d^c|B2  d2 cB|B2 AG A2 | A2 A B2A| & A2 A2 | A2 A2 B2A| cB A2 A2  | A2  A2  E2|]